@plugins/plugin-blog/icon.svg

<svg width="200" height="200" viewBox="0 0 200 200" fill="none" xmlns="http://www.w3.org/2000/svg">
<rect width="200" height="200" fill="#2F80ED"/>
<path fill-rule="evenodd" clip-rule="evenodd" d="M44.9653 37.5H155.035V162.76H44.9653V37.5ZM57.4653 50V150.26H142.535V50H57.4653Z" fill="#6DA6F2"/>
<path d="M81.6766 77.5L75.5829 76.4844V71.6406H87.2235C88.9943 71.6406 91.286 71.5365 94.0985 71.3281C94.7756 71.276 95.5829 71.224 96.5204 71.1719C97.4579 71.1198 98.5516 71.0938 99.8016 71.0938C107.666 71.0938 113.161 72.2135 116.286 74.4531C119.463 76.6406 121.052 79.9219 121.052 84.2969C121.052 88.151 119.88 91.3802 117.536 93.9844C115.244 96.5365 112.224 98.099 108.474 98.6719C113.63 98.6198 117.666 99.7917 120.583 102.188C123.552 104.583 125.036 107.917 125.036 112.188C125.036 117.604 123.135 121.953 119.333 125.234C115.531 128.516 109.177 130.156 100.27 130.156C97.9266 130.156 95.7652 130.078 93.786 129.922C93.2652 129.922 92.3798 129.87 91.1298 129.766C89.8798 129.714 88.6037 129.688 87.3016 129.688H75.5048V125L81.6766 124.219V77.5ZM93.0048 96.9531C93.5777 97.0052 94.7496 97.0313 96.5204 97.0313H100.192C103.369 97.0313 105.739 96.0417 107.302 94.0625C108.864 92.0833 109.645 89.2969 109.645 85.7031C109.645 82.2656 108.838 79.7656 107.224 78.2031C105.609 76.6406 102.927 75.8594 99.1766 75.8594C98.1871 75.8594 96.1298 75.9635 93.0048 76.1719V96.9531ZM93.0048 124.531C94.2027 125 96.4943 125.234 99.8798 125.234C104.307 125.234 107.51 124.193 109.489 122.109C111.468 120.026 112.458 117.005 112.458 113.047C112.458 109.245 111.546 106.536 109.724 104.922C107.953 103.255 105.114 102.422 101.208 102.422C96.8329 102.422 94.0985 102.474 93.0048 102.578V124.531Z" fill="white"/>
</svg>

<svg width="200" height="200" xmlns="http://www.w3.org/2000/svg" fill="none" viewBox="0 0 200 200">
  <defs/>
  <path fill="#0471FF" d="M0 0h200v200H0z"/>
  <path fill="#6DA6F2" fill-rule="evenodd" d="M44.97 37.5h110.06v125.26H44.97V37.5zM57.47 50v100.26h85.06V50H57.47z" clip-rule="evenodd"/>
  <path fill="#fff" d="M81.68 77.5l-6.1-1.02v-4.84h11.64c1.77 0 4.07-.1 6.88-.31l2.42-.16c.94-.05 2.03-.08 3.28-.08 7.87 0 13.36 1.12 16.49 3.36 3.17 2.2 4.76 5.47 4.76 9.85 0 3.85-1.17 7.08-3.51 9.68a14.74 14.74 0 01-9.07 4.7c5.16-.06 9.2 1.11 12.11 3.5 2.97 2.4 4.46 5.74 4.46 10 0 5.42-1.9 9.77-5.7 13.05-3.8 3.29-10.16 4.93-19.07 4.93-2.34 0-4.5-.08-6.48-.24a37 37 0 01-2.66-.15 92.12 92.12 0 00-3.83-.08H75.5V125l6.18-.78V77.5zM93 96.95c.58.06 1.75.08 3.52.08h3.67c3.18 0 5.55-.99 7.11-2.97 1.56-1.98 2.35-4.76 2.35-8.36 0-3.43-.81-5.93-2.43-7.5-1.61-1.56-4.3-2.34-8.04-2.34-1 0-3.05.1-6.18.31v20.78zm0 27.58c1.2.47 3.5.7 6.88.7 4.43 0 7.63-1.04 9.6-3.12 1.99-2.08 2.98-5.1 2.98-9.06 0-3.8-.91-6.51-2.74-8.13-1.77-1.67-4.6-2.5-8.51-2.5-4.38 0-7.11.05-8.2.16v21.95z"/>
</svg>
